X: 1
T:Praeludium
T:(Prelude) BWV 933
C:Johann Sebastian Bach
O:Germany
S:From "Sechs kleine Praeludien".
Z:Transcribed by Frank Nordberg - http://www.musicaviva.com

V:1 Program 1 6 up %Harpsichord
V:2 Program 1 6 merge down %Harpsichord
V:3 Program 1 6 bass %Harpsichord
M:C
L:1/16
K:C
V:1
E4z2F2G4z2c2|PF2F2 d2F2 F2E2z4|
V:2
P[G,4C4]z2D2P[C4E4]z2E2|D2D2 z2D2 D2C2 z4|
V:3
zC,,E,,G,,C,4 zC,,E,,G,,C,4|\
zC,D,C, B,,D,G,,B,, C,C,,E,,G,, C,D,E,F,|

V:1
PD4z2E2F4z2F2|E2G2 GFGA ~D4 zGBd|x4 AG^FE FDFA FDFA|
V:2
B,4z2C2D4z2D2|C2E2 C2C2 PB,4 x4|edcB x4x8|
V:3
G,G,,B,,D,G,4 zG,,B,,D,G,4|zG,,C,E, E,,2F,,2 G,,G,D,B,, G,,2G,2|\
C,2G,2C,2A,2 D,2A,2C,2A,2|

V:1
x4 G^FED ECEG ECEG|cBAG ^FGAF DEFG ABcA|d2G2 BAG^F GDB,2z4:|
V:2
dcBA x4x8|x16|x16:|
V:3
B,,2A,2B,,2G,2 C,2G,2B,,2G,2|A,,2G,2A,,2G,2 ^F,2A,2F,2D,2|\
B,,2E,2C,2D,2 G,2 zG,G,,4:|

V:1
|:B4z2c2d4z2e2|=f2f2 f2e2 d2c2z4|[c4g4]z2_B2PA4z2a2|
V:2
|:P[D4G4] z2A2P[B4G4]z2c2|d2d2 d2c2 B2A2z4|G4z2G2F4z2c2|
V:3
|:zG,,B,,D,G,4 zG,,B,,D,G,4|zA,B,A, ^G,B,E,G, A,A,,C,E, A,B,CD|\
EE,G,CE4zF,A,C FEFE|

V:1
=b2c'2 f2e2 e2d2 zGBd|x4 c_BAG AFAc AFAc|
V:2
f2e2 d2c2 c2B2 x4|gfed x4x8|
V:3
DCDC B,G,CE G^FGD B,DG,B,|E,2C2E,2C2 F,2C2E,2C2|

V:1
x4 =BAGF GFGd GFGd|edcB AGFE DFAc BGBd|x8 cGECz4:|]
V:2
fedc x4x8|x16|g2c2 edcB x8:|]
V:3
D,2=B,2C,2A,2 B,,2F,2E,2D,2|\
C,2E,2F,2A,2 F,2D,2F,2A,2|E,2A,2F,2G,2C,4C,,4:|]

